motion-tailwind/img/icons/search.svg

<svg fill="none" height="16" viewBox="0 0 16 16" width="16" xmlns="http://www.w3.org/2000/svg" xmlns:xlink="http://www.w3.org/1999/xlink"><clipPath id="a"><path d="m0 0h16v16h-16z"/></clipPath><g clip-path="url(#a)"><path d="m10.3333 9.33333h-.52663l-.18667-.18c.6533-.76 1.0467-1.74666 1.0467-2.82 0-2.39333-1.94003-4.33333-4.33337-4.33333-2.39333 0-4.33333 1.94-4.33333 4.33333 0 2.39334 1.94 4.33337 4.33333 4.33337 1.07334 0 2.06-.3934 2.82-1.0467l.18.18667v.52663l3.33337 3.3267.9933-.9933zm-3.99997 0c-1.66 0-3-1.34-3-3s1.34-3 3-3 3 1.34 3 3-1.34 3-3 3z" fill="#1b2559"/></g></svg>

<svg width="16" height="16" viewBox="0 0 16 16" fill="none" xmlns="http://www.w3.org/2000/svg">
<g id="search" clip-path="url(#clip0_4257_196)">
<path id="Vector" d="M10.3333 9.33333H9.80667L9.62 9.15333C10.2733 8.39333 10.6667 7.40667 10.6667 6.33333C10.6667 3.94 8.72667 2 6.33333 2C3.94 2 2 3.94 2 6.33333C2 8.72667 3.94 10.6667 6.33333 10.6667C7.40667 10.6667 8.39333 10.2733 9.15333 9.62L9.33333 9.80667V10.3333L12.6667 13.66L13.66 12.6667L10.3333 9.33333ZM6.33333 9.33333C4.67333 9.33333 3.33333 7.99333 3.33333 6.33333C3.33333 4.67333 4.67333 3.33333 6.33333 3.33333C7.99333 3.33333 9.33333 4.67333 9.33333 6.33333C9.33333 7.99333 7.99333 9.33333 6.33333 9.33333Z" fill="#1B2559"/>
</g>
<defs>
<clipPath id="clip0_4257_196">
<rect width="16" height="16" fill="white"/>
</clipPath>
</defs>
</svg>
